libs/ui/packages/crypto-icons/src/svg/BLCN.svg

<svg width="24" height="24" viewBox="0 0 24 24" fill="none">
<path fill-rule="evenodd" clip-rule="evenodd" d="M5.925 5.25H10.575C10.754 5.25 10.9257 5.32112 11.0523 5.4477C11.1789 5.57429 11.25 5.74598 11.25 5.925V10.575C11.25 10.754 11.1789 10.9257 11.0523 11.0523C10.9257 11.1789 10.754 11.25 10.575 11.25H5.925C5.74598 11.25 5.57429 11.1789 5.4477 11.0523C5.32112 10.9257 5.25 10.754 5.25 10.575V5.925C5.25 5.74598 5.32112 5.57429 5.4477 5.4477C5.57429 5.32112 5.74598 5.25 5.925 5.25ZM13.425 5.25H18.075C18.254 5.25 18.4257 5.32112 18.5523 5.4477C18.6789 5.57429 18.75 5.74598 18.75 5.925V10.575C18.75 10.754 18.6789 10.9257 18.5523 11.0523C18.4257 11.1789 18.254 11.25 18.075 11.25H13.425C13.246 11.25 13.0743 11.1789 12.9477 11.0523C12.8211 10.9257 12.75 10.754 12.75 10.575V5.925C12.75 5.74598 12.8211 5.57429 12.9477 5.4477C13.0743 5.32112 13.246 5.25 13.425 5.25ZM13.425 12.75H18.075C18.254 12.75 18.4257 12.8211 18.5523 12.9477C18.6789 13.0743 18.75 13.246 18.75 13.425V18.075C18.75 18.254 18.6789 18.4257 18.5523 18.5523C18.4257 18.6789 18.254 18.75 18.075 18.75H13.425C13.246 18.75 13.0743 18.6789 12.9477 18.5523C12.8211 18.4257 12.75 18.254 12.75 18.075V13.425C12.75 13.246 12.8211 13.0743 12.9477 12.9477C13.0743 12.8211 13.246 12.75 13.425 12.75ZM5.925 12.75H10.575C10.754 12.75 10.9257 12.8211 11.0523 12.9477C11.1789 13.0743 11.25 13.246 11.25 13.425V18.075C11.25 18.254 11.1789 18.4257 11.0523 18.5523C10.9257 18.6789 10.754 18.75 10.575 18.75H5.925C5.74598 18.75 5.57429 18.6789 5.4477 18.5523C5.32112 18.4257 5.25 18.254 5.25 18.075V13.425C5.25 13.246 5.32112 13.0743 5.4477 12.9477C5.57429 12.8211 5.74598 12.75 5.925 12.75Z" fill="#2AABE4"/>
</svg>

<svg width="24" height="24" viewBox="0 0 24 24" fill="none"><path fill="#2aabe4" fill-rule="evenodd" d="M5.925 5.25h4.65a.675.675 0 0 1 .675.675v4.65a.675.675 0 0 1-.675.675h-4.65a.675.675 0 0 1-.675-.675v-4.65a.675.675 0 0 1 .675-.675m7.5 0h4.65a.675.675 0 0 1 .675.675v4.65a.675.675 0 0 1-.675.675h-4.65a.675.675 0 0 1-.675-.675v-4.65a.675.675 0 0 1 .675-.675m0 7.5h4.65a.675.675 0 0 1 .675.675v4.65a.675.675 0 0 1-.675.675h-4.65a.675.675 0 0 1-.675-.675v-4.65a.675.675 0 0 1 .675-.675m-7.5 0h4.65a.675.675 0 0 1 .675.675v4.65a.675.675 0 0 1-.675.675h-4.65a.675.675 0 0 1-.675-.675v-4.65a.675.675 0 0 1 .675-.675" clip-rule="evenodd"/></svg>
